Board shape/hourglass.svg

<?xml version="1.0" encoding="UTF-8" standalone="no"?>
<svg
   xmlns:dc="http://purl.org/dc/elements/1.1/"
   xmlns:cc="http://creativecommons.org/ns#"
   xmlns:rdf="http://www.w3.org/1999/02/22-rdf-syntax-ns#"
   xmlns:svg="http://www.w3.org/2000/svg"
   xmlns="http://www.w3.org/2000/svg"
   xmlns:sodipodi="http://sodipodi.sourceforge.net/DTD/sodipodi-0.dtd"
   xmlns:inkscape="http://www.inkscape.org/namespaces/inkscape"
   id="svg40861"
   version="1.1"
   viewBox="0 0 210 297"
   height="297mm"
   width="210mm"
   sodipodi:docname="hourglass.svg"
   inkscape:version="0.92.1 r15371">
  <sodipodi:namedview
     pagecolor="#ffffff"
     bordercolor="#666666"
     borderopacity="1"
     objecttolerance="10"
     gridtolerance="10"
     guidetolerance="10"
     inkscape:pageopacity="0"
     inkscape:pageshadow="2"
     inkscape:window-width="1920"
     inkscape:window-height="1027"
     id="namedview4491"
     showgrid="false"
     inkscape:zoom="0.75187991"
     inkscape:cx="396.85039"
     inkscape:cy="561.25984"
     inkscape:window-x="1912"
     inkscape:window-y="-8"
     inkscape:window-maximized="1"
     inkscape:current-layer="svg40861" />
  <title
     id="title41469">Hourglass</title>
  <defs
     id="defs40855" />
  <metadata
     id="metadata40858">
    <rdf:RDF>
      <cc:Work
         rdf:about="">
        <dc:format>image/svg+xml</dc:format>
        <dc:type
           rdf:resource="http://purl.org/dc/dcmitype/StillImage" />
        <dc:title>Hourglass</dc:title>
      </cc:Work>
    </rdf:RDF>
  </metadata>
  <g
     id="layer1"
     transform="matrix(0.27477878,0,0,0.29824544,3.9088461e-6,208.42106)">
    <path
       id="path41417"
       transform="scale(0.26458333)"
       d="m 0.609375,45.353516 c 0.005012,24.530664 -0.50375842,46.744995 1.1328125,69.921874 1.3664672,4.9202 5.5506803,10.68034 10.2050785,13.22852 2.997979,1.64131 7.898877,1.89062 38.78125,1.89062 h 34.919922 v 15.11719 c 0,65.21675 12.992997,141.72573 32.125002,194.64648 20.0002,55.32242 40.94471,90.53694 92.59961,149.29102 31.59162,35.93348 43.16498,50.93116 49.43359,71.6875 4.69291,15.6909 3.41349,33.16655 -0.30078,51.14648 -6.80234,25.64247 -15.29671,41.74914 -57.87109,105.44336 -18.1235,27.11396 -37.20349,55.89797 -42.28516,64.63477 -45.79396,78.73156 -61.511292,153.993 -71.781251,243.95897 l -1.919921,16.8301 H 51.253906 c -31.247017,0.2981 -36.305804,0.2458 -39.30664,1.8887 -4.6543982,2.5482 -8.8386113,8.3083 -10.2050785,13.2285 -4.2690096,18.5474 0.913941,44.797 -1.1328125,64.2519 h 377.343745 0.60743 377.3457 c -2.04677,-19.455 3.13425,-45.7044 -1.13477,-64.2519 -1.36645,-4.9202 -5.55066,-10.6804 -10.20507,-13.2285 -3.00084,-1.6429 -8.05963,-1.5906 -39.30664,-1.8887 h -34.39454 l -1.91992,-16.8301 c -10.26996,-89.96597 -25.98533,-165.22741 -71.77929,-243.95897 -5.08165,-8.7368 -24.16364,-37.52081 -42.28711,-64.63477 -42.57438,-63.69422 -51.06874,-79.80089 -57.8711,-105.44336 -3.71425,-17.97993 -4.9937,-35.45558 -0.30078,-51.14648 6.26861,-20.75634 17.84391,-35.75402 49.43555,-71.6875 51.65491,-58.75408 72.59745,-93.96859 92.59765,-149.29102 19.13201,-52.92075 32.125,-129.42972 32.125,-194.64648 v -15.11719 h 34.91993 c 30.88236,0 35.78329,-0.24933 38.78125,-1.89062 4.65441,-2.54818 8.83862,-8.30832 10.20507,-13.22852 1.63658,-23.176879 1.12978,-45.39121 1.13477,-69.921874 h -377.3457 -0.60743 z"
       style="fill:#000000;fill-opacity:1;stroke-width:1.09551466"
       inkscape:connector-curvature="0" />
  </g>
</svg>

<?xml version="1.0" encoding="UTF-8" standalone="no"?>
<svg
   xmlns:dc="http://purl.org/dc/elements/1.1/"
   xmlns:cc="http://creativecommons.org/ns#"
   xmlns:rdf="http://www.w3.org/1999/02/22-rdf-syntax-ns#"
   xmlns:svg="http://www.w3.org/2000/svg"
   xmlns="http://www.w3.org/2000/svg"
   id="svg40861"
   version="1.1"
   viewBox="0 0 210 297"
   height="297mm"
   width="210mm">
  <title
     id="title41469">Hourglass</title>
  <defs
     id="defs40855" />
  <metadata
     id="metadata40858">
    <rdf:RDF>
      <cc:Work
         rdf:about="">
        <dc:format>image/svg+xml</dc:format>
        <dc:type
           rdf:resource="http://purl.org/dc/dcmitype/StillImage" />
        <dc:title>Hourglass</dc:title>
      </cc:Work>
    </rdf:RDF>
  </metadata>
  <g
     id="layer1">
    <path
       id="path41417"
       transform="scale(0.26458333)"
       d="M 0.609375 45.353516 C 0.61438658 69.88418 0.10561658 92.098511 1.7421875 115.27539 C 3.1086547 120.19559 7.2928678 125.95573 11.947266 128.50391 C 14.945245 130.14522 19.846143 130.39453 50.728516 130.39453 L 85.648438 130.39453 L 85.648438 145.51172 C 85.648438 210.72847 98.641435 287.23745 117.77344 340.1582 C 137.77364 395.48062 158.71815 430.69514 210.37305 489.44922 C 241.96467 525.3827 253.53803 540.38038 259.80664 561.13672 C 264.49955 576.82762 263.22013 594.30327 259.50586 612.2832 C 252.70352 637.92567 244.20915 654.03234 201.63477 717.72656 C 183.51127 744.84052 164.43128 773.62453 159.34961 782.36133 C 113.55565 861.09289 97.838318 936.35433 87.568359 1026.3203 L 85.648438 1043.1504 L 51.253906 1043.1504 C 20.006889 1043.4485 14.948102 1043.3962 11.947266 1045.0391 C 7.2928678 1047.5873 3.1086547 1053.3474 1.7421875 1058.2676 C -2.5268221 1076.815 2.6561285 1103.0646 0.609375 1122.5195 L 377.95312 1122.5195 L 378.56055 1122.5195 L 755.90625 1122.5195 C 753.85948 1103.0645 759.0405 1076.8151 754.77148 1058.2676 C 753.40503 1053.3474 749.22082 1047.5872 744.56641 1045.0391 C 741.56557 1043.3962 736.50678 1043.4485 705.25977 1043.1504 L 670.86523 1043.1504 L 668.94531 1026.3203 C 658.67535 936.35433 642.95998 861.09289 597.16602 782.36133 C 592.08437 773.62453 573.00238 744.84052 554.87891 717.72656 C 512.30453 654.03234 503.81017 637.92567 497.00781 612.2832 C 493.29356 594.30327 492.01411 576.82762 496.70703 561.13672 C 502.97564 540.38038 514.55094 525.3827 546.14258 489.44922 C 597.79749 430.69514 618.74003 395.48063 638.74023 340.1582 C 657.87224 287.23745 670.86523 210.72848 670.86523 145.51172 L 670.86523 130.39453 L 705.78516 130.39453 C 736.66752 130.39453 741.56845 130.1452 744.56641 128.50391 C 749.22082 125.95573 753.40503 120.19559 754.77148 115.27539 C 756.40806 92.098511 755.90126 69.88418 755.90625 45.353516 L 378.56055 45.353516 L 377.95312 45.353516 L 0.609375 45.353516 z "
       style="fill:#000000;fill-opacity:1;stroke-width:1.09551466" />
  </g>
</svg>
